X:1
T:Homeward Bound
T:Charles Hutchinson Gabriel
T:Homeward Bound
T:Public Domain
T:Public Domain
C:Charles Hutchinson Gabriel
Z:Public Domain
%%score ( 1 2 ) ( 3 4 )
L:1/8
M:4/4
K:Ab
V:1 treble 
V:2 treble 
V:3 bass 
V:4 bass 
V:1
 [CE][CE] | [CA]2 [CA]2 [CA]2 [Ec]2 | [FA]2 [DF]4 [FA][DA] | [CE]2 [CE]2 [EA]2 [Ec]2 | %4
w: 1.~From my|Fa- ther’s home I|wan- dered, For my|feet were prone to|
w: 2.~I was|lost in sin’s dark|val- ley, Fol- low-|ing the down- ward|
w: 3.~I was|sin- stained, I was|weep- ing, But my|stains are washed a-|
 [EB]6 [DE][DE] | [CA]2 [CA]2 [CA]2 [Ec]2 | [FA]2 [DF]4 [DA][DF] | [CE]3 [Ec] [Ec]2 [DB]2 | %8
w: stray, But my|Sav- ior sought and|found me, And I’m|home- ward bound to-|
w: way, But my|Sav- ior saw my|dan- ger, And I’m|home- ward bound to-|
w: way; And, re-|joic- ing in my|Sav- ior, I am|home- ward bound to-|
 [CA]6 z2 ||"^Refrain" (A2 A2 A2) c2 | (A2 A2 A2) [_Gc]2 | d3 d A2 d2 | (E2 E2 E2) [Ec]2 | %13
w: day.|Home- * * ward|I’m * * home-|bound to- day; I’m|bound, * * Prais-|
w: day.|||||
w: day.|||||
 (A2 A2 A2) [Ec]2 | [Ee]4 [Fd]2 [Fd]2 | [Ec]3 [EA] [EB]2 [EB]2 | [EA]6 |] %17
w: Je- * * sus|the way. *|||
w: ||||
w: ||||
V:2
 x2 | x8 | x8 | x8 | x8 | x8 | x8 | x8 | x8 || e6 x2 | e6 x2 | F4 F4 | c6 x2 | e6 x2 | x8 | x8 | %16
w: |||||||||bound,|ward|home- ward|ing|all|||
 x6 |] %17
w: |
V:3
 [A,,A,][A,,A,] | [A,,A,]2 [A,,A,]2 [A,,A,]2 [A,,A,]2 | [D,A,]2 [D,A,]4 [D,A,][F,A,] | %3
w: ~ ~|~ ~ ~ ~|~ ~ ~ ~|
 A,2 A,2 [A,C]2 A,2 | [E,G,]6 [E,G,][E,G,] | [A,,A,]2 [A,,A,]2 [A,,A,]2 [A,,A,]2 | %6
w: ~ ~ ~ ~|~ ~ ~|~ ~ ~ ~|
 [D,A,]2 [D,A,]4 [D,F,][D,A,] | [E,A,]3 [E,A,] [E,A,]2 [E,G,]2 | [A,,A,]6 z2 || %9
w: ~ ~ ~ ~|~ ~ Home- ward|bound,|
 [A,C]2 [A,C]2 [A,C]2 z2 | [A,C]2 [A,C]2 [A,C]2 A,2 | [D,A,]4 [D,A,]4 | %12
w: home- ward bound,|I’m home- ward bound|day; I’m|
 [A,,A,]2 [A,,A,]2 [A,,A,]2 A,2 | [A,C]2 [A,C]2 [A,C]2 A,2 | [C,A,]4 [D,A,]2 [D,A,]2 | %15
w: home- ward bound to-|||
 [E,A,]3 [E,C] [E,D]2 [E,D]2 | [A,,C]6 |] %17
w: ||
V:4
 x2 | x8 | x8 | A,2 A,2 A,2 x2 | x8 | x8 | x8 | x8 | x8 || x8 | x6 A,2 | x8 | x6 A,2 | x6 A,2 | %14
w: |||~ ~ ~|||||||to-||day,||
 x8 | x8 | x6 |] %17
w: |||

